Adwaita++/status/32/network-wireless-encrypted.svg

<svg height="32" width="32" xmlns="http://www.w3.org/2000/svg">
  <path d="m16.054 6c-5.277 0-10.027 1.875-13.967 4.783l13.967 15.217 13.859-15.272c-3.924-2.8754-8.622-4.7284-13.859-4.7284z" fill="#4f4f4f"/>
  <path d="m16 9.9953c-4.2037 0-8.1052 1.3786-11.239 3.707l11.298 12.298 11.18-12.298c-3.133-2.328-7.035-3.7067-11.239-3.7067z" fill="#797979"/>
  <path d="m16 13.996c-3.1528 0-6.0789 1.034-8.4289 2.7802l8.4729 9.224 8.3848-9.2233c-2.35-1.7463-5.2762-2.7802-8.4289-2.7802z" fill="#e4e4e4"/>
  <g fill="#fff">
    <path d="m16.054 6c-5.277 0-10.027 1.8756-13.967 4.783l.5625.61328c3.828-2.679 8.3715-4.396 13.404-4.396 4.9932 0 9.4887 1.6964 13.299 4.3457l.561-.617c-3.925-2.8756-8.624-4.7288-13.86-4.7288z" opacity=".1"/>
    <path d="m16.001 9.9961c-4.2037 0-8.1068 1.3787-11.24 3.707l.56445.61329c3.0336-2.087 6.7172-3.3203 10.676-3.3203 3.9606 0 7.6433 1.2354 10.678 3.3242l.561-.617c-3.133-2.328-7.035-3.7069-11.238-3.7069z" opacity=".1"/>
    <path d="m16.001 13.996c-3.1528 0-6.0796 1.035-8.4297 2.7812l.56445.61328c2.248-1.5066 4.9575-2.3945 7.8652-2.3945 2.9096 0 5.6183.89 7.8672 2.3984l.56055-.61719c-2.35-1.7463-5.275-2.7812-8.4277-2.7812z" opacity=".1"/>
  </g>
  <path d="m29.352 11.346-13.297 14.654-13.405-14.604c-.1865.131-.3795.252-.5625.387l13.968 15.217 13.856-15.272c-.182-.1332-.375-.2531-.56-.3823z" opacity=".2"/>
  <rect height="14" opacity=".2" rx="2.1" width="14" x="15" y="17"/>
  <rect fill="#38ac52" height="14" rx="2.1" width="14" x="15" y="16"/>
  <path d="m22 18c-1.662 0-3 1.338-3 3v3c0 1.662 1.338 3 3 3s3-1.338 3-3v-3c0-1.662-1.338-3-3-3zm0 1.5c.856946 0 1.5.643054 1.5 1.5v3c0 .856946-.643054 1.5-1.5 1.5s-1.5-.643054-1.5-1.5v-3c0-.856946.643054-1.5 1.5-1.5z" fill="#fff"/>
  <rect fill="#fff" height="6" rx="1" width="8" x="18" y="22"/>
</svg>

<svg xmlns="http://www.w3.org/2000/svg" width="32" height="32" version="1">
 <path fill="#4f4f4f" d="m16.054 6c-5.277 0-10.027 1.875-13.967 4.783l13.967 15.217 13.859-15.272c-3.924-2.8754-8.622-4.7284-13.859-4.7284z"/>
 <path fill="#797979" d="m16 9.9953c-4.2037 0-8.1052 1.3786-11.239 3.707l11.298 12.298 11.18-12.298c-3.133-2.328-7.035-3.7067-11.239-3.7067z"/>
 <path fill="#e4e4e4" d="m16 13.996c-3.1528 0-6.0789 1.034-8.4289 2.7802l8.4729 9.224 8.3848-9.2233c-2.35-1.7463-5.2762-2.7802-8.4289-2.7802z"/>
 <path fill="#fff" opacity=".1" d="m16.054 6c-5.277 0-10.027 1.8756-13.967 4.783l0.5625 0.61328c3.828-2.679 8.3715-4.396 13.404-4.396 4.9932 0 9.4887 1.6964 13.299 4.3457l0.561-0.617c-3.925-2.8756-8.624-4.7288-13.86-4.7288z"/>
 <path fill="#fff" opacity=".1" d="m16.001 9.9961c-4.2037 0-8.1068 1.3787-11.24 3.707l0.56445 0.61329c3.0336-2.087 6.7172-3.3203 10.676-3.3203 3.9606 0 7.6433 1.2354 10.678 3.3242l0.561-0.617c-3.133-2.328-7.035-3.7069-11.238-3.7069z"/>
 <path fill="#fff" opacity=".1" d="m16.001 13.996c-3.1528 0-6.0796 1.035-8.4297 2.7812l0.56445 0.61328c2.248-1.5066 4.9575-2.3945 7.8652-2.3945 2.9096 0 5.6183 0.89 7.8672 2.3984l0.56055-0.61719c-2.35-1.7463-5.275-2.7812-8.4277-2.7812z"/>
 <path opacity=".2" d="m29.352 11.346-13.297 14.654-13.405-14.604c-0.1865 0.131-0.3795 0.252-0.5625 0.387l13.968 15.217 13.856-15.272c-0.182-0.1332-0.375-0.2531-0.56-0.3823z"/>
 <rect width="14" height="14" x="15" y="17" rx="2.1" ry="2.1" style="opacity:0.2"/>
 <rect style="fill:#38ac52" width="14" height="14" x="15" y="16" rx="2.1" ry="2.1"/>
 <path style="fill:#ffffff" d="M 22 18 C 20.338 18 19 19.338 19 21 L 19 24 C 19 25.662 20.338 27 22 27 C 23.662 27 25 25.662 25 24 L 25 21 C 25 19.338 23.662 18 22 18 z M 22 19.5 C 22.856946 19.5 23.5 20.143054 23.5 21 L 23.5 24 C 23.5 24.856946 22.856946 25.5 22 25.5 C 21.143054 25.5 20.5 24.856946 20.5 24 L 20.5 21 C 20.5 20.143054 21.143054 19.5 22 19.5 z"/>
 <rect style="fill:#ffffff" width="8" height="6" x="18" y="22" rx="1" ry="1"/>
</svg>
